X: 21443
T: Kevin Loughlin's
R: jig
M: 6/8
K: Dmajor
A|d2 f edB|BAd BAF|~D3 BAF|~E3 EFA|
def edB|BAd BAF|GBd AFD|EDC D2:|
g|~f3 dfa|~g3 bag|~f3 dfa|~g3 eag|
f2 d dc=c|~B3 GBd|~a3 baf|gec d2:|

